public/expand-collapse.svg

<svg xmlns="http://www.w3.org/2000/svg" xmlns:vectornator="http://vectornator.io" xmlns:xlink="http://www.w3.org/1999/xlink" xml:space="preserve" stroke-miterlimit="10" style="fill-rule:nonzero;clip-rule:evenodd;stroke-linecap:round;stroke-linejoin:round" viewBox="0 0 1024 1024"><defs><path id="a" d="M118.375 204.469c-27.256 0-54.519 10.393-75.313 31.187l-3.03 3c-20.795 20.794-31.22 48.059-31.22 75.313 0 27.254 10.425 54.518 31.22 75.312l399.281 399.375c2.657 2.658 5.707 4.62 8.562 6.938l1.719 1.75c-.382-.382-.655-.833-1.031-1.219 41.809 33.386 102.652 31.253 141.375-7.469l1.343-1.375c4.125-3.188 8.185-6.591 11.969-10.375L979.156 401c44.594-44.592 47.794-114.859 9.625-163.156-1.562-1.237-3.206-2.319-4.812-3.469-.411-.28-1.11-.745-1.25-.844-.026-.018-.039-.043-.063-.062-47.974-33.408-114.339-28.88-157.125 13.906L515.469 557.438 193.688 235.656c-20.795-20.794-48.057-31.187-75.313-31.187Z"/></defs><g vectornator:layerName="Layer 1"><g vectornator:layerName="Curve 1"><mask id="b" width="1006.38" height="615.082" x="8.813" y="204.469" maskUnits="userSpaceOnUse"><path d="M8.813 204.469h1006.38v615.082H8.813z"/><use xlink:href="#a" fill="#fff" fill-rule="evenodd"/></mask><use xlink:href="#a" fill="none" stroke="#000" stroke-linecap="butt" stroke-width="160" mask="url(#b)"/></g></g></svg>

<?xml version="1.0" encoding="UTF-8" standalone="no"?>
<!DOCTYPE svg PUBLIC "-//W3C//DTD SVG 1.1//EN" "http://www.w3.org/Graphics/SVG/1.1/DTD/svg11.dtd">
<!-- Created with Vectornator (http://vectornator.io/) -->
<svg height="100%" stroke-miterlimit="10" style="fill-rule:nonzero;clip-rule:evenodd;stroke-linecap:round;stroke-linejoin:round;" version="1.1" viewBox="0 0 1024 1024" width="100%" xml:space="preserve" xmlns="http://www.w3.org/2000/svg" xmlns:vectornator="http://vectornator.io" xmlns:xlink="http://www.w3.org/1999/xlink">
<defs>
<path d="M118.375 204.469C91.1194 204.469 63.8565 214.862 43.0625 235.656L40.0313 238.656C19.2373 259.45 8.8125 286.715 8.8125 313.969C8.81248 341.223 19.2372 368.487 40.0313 389.281L439.313 788.656C441.97 791.314 445.02 793.276 447.875 795.594L449.594 797.344C449.212 796.962 448.939 796.511 448.563 796.125C490.372 829.511 551.215 827.378 589.938 788.656L591.281 787.281C595.406 784.093 599.466 780.69 603.25 776.906L979.156 401C1023.75 356.408 1026.95 286.141 988.781 237.844C987.219 236.607 985.575 235.525 983.969 234.375C983.558 234.095 982.859 233.63 982.719 233.531C982.693 233.513 982.68 233.488 982.656 233.469C934.682 200.061 868.317 204.589 825.531 247.375L515.469 557.438L193.688 235.656C172.893 214.862 145.631 204.469 118.375 204.469Z" id="Fill"/>
</defs>
<g id="Layer-1" vectornator:layerName="Layer 1">
<g opacity="1" vectornator:layerName="Curve 1">
<mask height="615.082" id="StrokeMask" maskUnits="userSpaceOnUse" width="1006.38" x="8.8125" y="204.469">
<rect fill="#000000" height="615.082" stroke="none" width="1006.38" x="8.8125" y="204.469"/>
<use fill="#ffffff" fill-rule="evenodd" stroke="none" xlink:href="#Fill"/>
</mask>
<use fill="none" mask="url(#StrokeMask)" stroke="#000000" stroke-linecap="butt" stroke-linejoin="round" stroke-width="160" xlink:href="#Fill"/>
</g>
</g>
</svg>
